X: 1
T:Eel in the Sink, The
R:reel
H:Also played in Ador, see "The Blackthorn", #478
D:Terry Bingham
Z:id:hn-reel-502
M:C|
K:Amix
e2AB cdec|d2BG dG (3Bcd|eAAB cdef|1 gedg eAAd:|2 gedg eAA2||
a2ea aged|cdef g2fg|a2ea agab|gedg eAA2|
a2ea aged|cdef g2fg|afge fdef|gfgd BAAd||
"variations"
|:e2AB cdec|d2Bd Gd (3Bcd|e2AB cdea|1 gedB BAAd:|2 gedB BAA2||
a2ea aged|(3Bcd ef g2fg|a2ea agab|gedB BAA2|
a2ea aged|(3Bcd ef g2fg|afge fdef|gedB BAA2||
